X: 1
T: PADDY THE PIPER -- REEL
B: Ryan's Mammoth Collection of Fiddle Tunes
R: reel
M: 2/4
L: 1/16
Z: Contributed 20000509024710 by Ivan Bradley bradleyi:peoplepc.com
K: G
(udc) "Segno"|\
|](BE).E.c (dcd>)B | .A2(3(FED) FAA2 | BEEF GABc | dBAc BEE2 |
(BE).E.c (dcd>)B | .A2(3(FED) FAA2 | BEEF GABc | dBAc BEE2 "^H"|]
e3f gfge | defg afd2 | {f}e^def (gf).e.c | dBAc BEE2 |
{f}e^def gfe^c | defg (af).d.f | g2fd ecdA | (3(Bcd) Ac BEE2 "Segno"|]

